app/assets/images/twemoji/suspicious.svg

<svg width="24" height="24" viewBox="0 0 24 24" fill="none" xmlns="http://www.w3.org/2000/svg">
<g clip-path="url(#clip0)">
<path d="M22 12C22 17.5228 17.5228 22 12 22C6.47778 22 2 17.5228 2 12C2 6.47778 6.47778 2 12 2C17.5228 2 22 6.47778 22 12Z" fill="#FFCB4C"/>
<path d="M8.76444 12.2311C9.57661 12.2311 10.235 11.3093 10.235 10.1722C10.235 9.03513 9.57661 8.11333 8.76444 8.11333C7.95227 8.11333 7.29388 9.03513 7.29388 10.1722C7.29388 11.3093 7.95227 12.2311 8.76444 12.2311Z" fill="#65471B"/>
<path d="M15.8233 13.7644C17.9349 13.7644 19.6467 12.0527 19.6467 9.94111C19.6467 7.82954 17.9349 6.11778 15.8233 6.11778C13.7118 6.11778 12 7.82954 12 9.94111C12 12.0527 13.7118 13.7644 15.8233 13.7644Z" fill="#F4F7F9"/>
<path d="M10.2361 7.52556C10.0572 7.52556 9.88056 7.44444 9.765 7.29056C9.21445 6.55667 8.63833 6.16333 8.05222 6.12167C7.28 6.06889 6.65056 6.64778 6.53333 6.765C6.30333 6.995 5.93111 6.995 5.70167 6.765C5.47167 6.535 5.47167 6.16278 5.70167 5.93333C5.95556 5.67944 6.88444 4.85778 8.13556 4.94833C9.07722 5.015 9.94167 5.56556 10.7061 6.58444C10.9011 6.84444 10.8483 7.21333 10.5889 7.40778C10.4822 7.48722 10.3583 7.52556 10.2361 7.52556Z" fill="#65471B"/>
<path d="M20.2356 22C19.9106 22 19.6472 21.7367 19.6472 21.4117V10.2356C19.6472 9.91056 19.9106 9.64722 20.2356 9.64722C20.5606 9.64722 20.8239 9.91056 20.8239 10.2356V21.4122C20.8233 21.7367 20.5606 22 20.2356 22Z" fill="#292F33"/>
<path d="M20.2356 9.05889C20.2056 9.05889 20.1772 9.06556 20.1478 9.06778C19.7411 7.05222 17.9572 5.52944 15.8233 5.52944C13.3906 5.52944 11.4117 7.50833 11.4117 9.94111C11.4117 12.3739 13.3906 14.3528 15.8233 14.3528C17.75 14.3528 19.3878 13.1094 19.9878 11.3844C20.0678 11.4017 20.15 11.4117 20.235 11.4117C20.885 11.4117 21.4117 10.885 21.4117 10.235C21.4117 9.58556 20.885 9.05889 20.2356 9.05889V9.05889ZM15.8233 13.1767C14.0394 13.1767 12.5883 11.7256 12.5883 9.94111C12.5883 8.15667 14.04 6.70556 15.8233 6.70556C17.6072 6.70556 19.0589 8.15667 19.0589 9.94111C19.0589 11.7256 17.6072 13.1767 15.8233 13.1767Z" fill="#67757F"/>
<path d="M13.7639 17.8822C13.6756 17.8822 13.5856 17.8622 13.5011 17.82C12.4906 17.3144 11.5083 17.3144 10.4978 17.82C10.2067 17.965 9.85333 17.8478 9.70833 17.5567C9.56278 17.2661 9.68055 16.9128 9.97167 16.7672C11.3167 16.095 12.6811 16.095 14.0272 16.7672C14.3178 16.9128 14.4356 17.2661 14.2906 17.5567C14.1878 17.7633 13.98 17.8822 13.7639 17.8822V17.8822Z" fill="#65471B"/>
<path d="M17.5828 7.22833C17.0761 6.89889 16.4728 6.70611 15.8233 6.70611C14.0367 6.70611 12.5878 8.15444 12.5878 9.94167C12.5878 10.5911 12.7811 11.1944 13.11 11.7011L17.5828 7.22833ZM14.4428 12.8639C14.8622 13.0622 15.3289 13.1767 15.8233 13.1767C17.61 13.1767 19.0589 11.7283 19.0589 9.94111C19.0589 9.44667 18.9444 8.97944 18.7461 8.56056L14.4428 12.8639Z" fill="#BDDDF4"/>
</g>
<defs>
<clipPath id="clip0">
<rect width="20" height="20" fill="white" transform="translate(2 2)"/>
</clipPath>
</defs>
</svg>

<svg width="24" height="24" viewBox="0 0 24 24" fill="none" xmlns="http://www.w3.org/2000/svg">
    <g clip-path="url(#a)">
        <path d="M22 12c0 5.523-4.477 10-10 10-5.522 0-10-4.477-10-10C2 6.478 6.478 2 12 2c5.523 0 10 4.478 10 10z" fill="#FFCB4C"/>
        <path d="M8.764 12.231c.813 0 1.471-.922 1.471-2.059s-.658-2.059-1.47-2.059c-.813 0-1.471.922-1.471 2.06 0 1.136.658 2.058 1.47 2.058z" fill="#65471B"/>
        <path d="M15.823 13.764a3.823 3.823 0 1 0 0-7.646 3.823 3.823 0 0 0 0 7.646z" fill="#F4F7F9"/>
        <path d="M10.236 7.526a.588.588 0 0 1-.471-.235c-.55-.734-1.127-1.128-1.713-1.17-.772-.052-1.401.527-1.519.644a.587.587 0 1 1-.831-.832c.254-.254 1.182-1.075 2.434-.985.941.067 1.806.618 2.57 1.636a.588.588 0 0 1-.47.942z" fill="#65471B"/>
        <path d="M20.236 22a.588.588 0 0 1-.589-.588V10.236a.588.588 0 1 1 1.177 0v11.176a.588.588 0 0 1-.588.588z" fill="#292F33"/>
        <path d="M20.236 9.059c-.03 0-.059.007-.088.009a4.42 4.42 0 0 0-4.325-3.539 4.416 4.416 0 0 0-4.411 4.412 4.416 4.416 0 0 0 4.411 4.412 4.416 4.416 0 0 0 4.165-2.969 1.177 1.177 0 1 0 .248-2.326zm-4.413 4.118a3.239 3.239 0 0 1-3.235-3.236 3.239 3.239 0 0 1 3.235-3.235A3.24 3.24 0 0 1 19.06 9.94a3.24 3.24 0 0 1-3.236 3.236z" fill="#67757F"/>
        <path d="M13.764 17.882a.587.587 0 0 1-.263-.062c-1.01-.506-1.993-.506-3.003 0a.588.588 0 1 1-.526-1.053c1.345-.672 2.71-.672 4.055 0a.589.589 0 0 1-.263 1.115z" fill="#65471B"/>
        <path d="M17.583 7.228a3.236 3.236 0 0 0-4.473 4.473l4.473-4.473zm-3.14 5.636c.42.198.886.313 1.38.313A3.236 3.236 0 0 0 19.06 9.94c0-.494-.115-.962-.313-1.38l-4.303 4.303z" fill="#BDDDF4"/>
    </g>
    <defs>
        <clipPath id="a">
            <path fill="#fff" transform="translate(2 2)" d="M0 0h20v20H0z"/>
        </clipPath>
    </defs>
</svg>
